X:1
T: L'Air Mignonne (A part variation
L:1/8
Q:1/4=120
M:4/4
K:A
EAB| c>c ce cB AB | c>c ce cB AB | F3 A E3 c | BA GA Be fg | 
a>a ab ag fg | a>a ab ag fg | f>f fe c>c cc |BA GB AB ce || 

